assets/img/message.svg

<?xml version="1.0" encoding="UTF-8"?>
<svg width="25px" height="23px" viewBox="0 0 25 23" version="1.1" xmlns="http://www.w3.org/2000/svg" xmlns:xlink="http://www.w3.org/1999/xlink">
    <!-- Generator: Sketch 51.3 (57544) - http://www.bohemiancoding.com/sketch -->
    <title>message</title>
    <desc>Created with Sketch.</desc>
    <defs></defs>
    <g id="Page-1" stroke="none" stroke-width="1" fill="none" fill-rule="evenodd">
        <g id="Artboard-Copy-2" transform="translate(-109.000000, -1047.000000)" fill="#FFFFFF" fill-rule="nonzero">
            <g id="Group-2-Copy" transform="translate(87.000000, 1030.000000)">
                <g id="message" transform="translate(22.000000, 17.000000)">
                    <path d="M9.375,15.5621036 L9.21875,15.5621036 C8.03962111,16.6614774 6.47017327,17.2664891 4.84375,17.248637 L3.515625,17.1719764 C3.2196305,17.1255658 2.97679485,16.9170674 2.890625,16.6353521 C2.79603125,16.3709987 2.85594108,16.0770643 3.046875,15.868746 C3.515625,15.3321218 3.90625,14.7954975 4.140625,14.1822126 C4.140625,14.0288914 4.140625,13.9522308 3.984375,13.8755702 C1.5625,12.342358 0,10.195861 0,7.81938209 C0,3.526388 5,0 11.09375,0 C17.1875,0 22.03125,3.526388 22.03125,7.81938209 C22.03125,12.1890368 17.109375,15.6387642 11.09375,15.6387642 L9.375,15.6387642 L9.375,15.5621036 Z M11.09375,16.7886733 C17.109375,16.7886733 22.1875,13.4922671 23.125,9.19927305 C24.3003459,10.3644101 24.9720236,11.9297432 25,13.5689278 C25,15.868746 23.515625,18.1685643 21.015625,19.7017765 C20.859375,19.7017765 20.859375,19.8550977 20.859375,19.9317583 C21.09375,20.5450431 21.484375,21.0816674 21.953125,21.6182917 C22.1875,21.7716129 22.1875,22.0782553 22.109375,22.3848978 C22.03125,22.6148796 21.796875,22.8448614 21.484375,22.921522 L20.15625,22.9981826 C18.5406524,23.0367644 16.9726276,22.4597768 15.78125,21.3883098 L13.984375,21.3883098 C10.390625,21.3883098 7.1875,20.1617401 5.15625,18.3218855 C6.484375,18.3218855 8.125,17.9385825 9.6875,16.7120127 L11.09375,16.7120127 L11.09375,16.7886733 Z" id="Shape"></path>
                </g>
            </g>
        </g>
    </g>
</svg>

<svg width="25" height="23" xmlns="http://www.w3.org/2000/svg"><path d="M9.375 15.562h-.156a6.316 6.316 0 0 1-4.375 1.687l-1.328-.077a.777.777 0 0 1-.625-.537.756.756 0 0 1 .156-.766c.469-.537.86-1.074 1.094-1.687 0-.153 0-.23-.157-.306C1.563 12.342 0 10.196 0 7.819 0 3.526 5 0 11.094 0 17.188 0 22.03 3.526 22.03 7.82c0 4.369-4.922 7.819-10.937 7.819H9.375v-.077zm1.719 1.227c6.015 0 11.094-3.297 12.031-7.59A6.304 6.304 0 0 1 25 13.57c0 2.3-1.484 4.6-3.984 6.133-.157 0-.157.153-.157.23.235.613.625 1.15 1.094 1.686.235.154.235.46.156.767-.078.23-.312.46-.625.537l-1.328.076a6.32 6.32 0 0 1-4.375-1.61h-1.797c-3.593 0-6.796-1.226-8.828-3.066 1.328 0 2.969-.383 4.532-1.61h1.406v.077z" fill="#FFF" fill-rule="nonzero"/></svg>
